public/assets/calls.svg

<svg width="32" height="16" viewBox="0 0 32 16" fill="none" xmlns="http://www.w3.org/2000/svg">
<path fill-rule="evenodd" clip-rule="evenodd" d="M2.5 0C1.39543 0 0.5 0.895431 0.5 2V14C0.5 15.1046 1.39543 16 2.5 16H29.5C30.6046 16 31.5 15.1046 31.5 14V2C31.5 0.895431 30.6046 0 29.5 0H2.5ZM3.76984 6.2H6.86508C7.21429 6.2 7.5 5.93 7.5 5.6C7.5 5.27 7.21429 5 6.86508 5H3.76984C3.07143 5 2.5 5.54 2.5 6.2V9.8C2.5 10.46 3.07143 11 3.76984 11H6.85714C7.21218 11 7.5 10.7314 7.5 10.4C7.5 10.0686 7.21218 9.8 6.85714 9.8H3.76984V6.2ZM8.5 6.2C8.5 5.53726 9.11764 5 9.87953 5H11.9488C12.7107 5 13.3284 5.53726 13.3284 6.2V7.4V8.6V10.4C13.3284 10.7314 13.0195 11 12.6386 11C12.2577 11 11.9488 10.7314 11.9488 10.4V8.6H9.87953V10.4C9.87953 10.7314 9.57071 11 9.18977 11C8.80882 11 8.5 10.7314 8.5 10.4V8.6V7.4V6.2ZM11.9488 6.2V7.4L9.87953 7.4V6.2L11.9488 6.2ZM29.5 9.8V8.6C29.5 7.94 28.9375 7.4 28.25 7.4H25.75V6.2H28.875C29.2188 6.2 29.5 5.93 29.5 5.6C29.5 5.27 29.2188 5 28.875 5H25.75C24.5 5 24.5 5.87 24.5 6.2V7.4C24.5 8 24.875 8.6 25.75 8.6H28.25V9.8H25.125C24.7812 9.8 24.5 10.07 24.5 10.4C24.5 10.73 24.7812 11 25.125 11H28.25C28.9375 11 29.5 10.46 29.5 9.8ZM14.7698 10.5374C14.8543 10.6393 14.9558 10.7282 15.0701 10.8C15.271 10.9263 15.5118 11 15.7698 11H17.8571C18.2122 11 18.5 10.7314 18.5 10.4C18.5 10.0686 18.2122 9.8 17.8571 9.8H16.7698H15.7698V8.8V5.63493C15.7698 5.28427 15.4856 5.00001 15.1349 5.00001C14.7843 5.00002 14.5 5.28428 14.5 5.63493V9.8C14.5 10.0774 14.6009 10.3336 14.7698 10.5374ZM20.0701 10.8C19.9558 10.7282 19.8543 10.6393 19.7698 10.5374C19.6009 10.3336 19.5 10.0774 19.5 9.8V5.63493C19.5 5.28428 19.7843 5.00002 20.1349 5.00001C20.4856 5.00001 20.7698 5.28427 20.7698 5.63493V8.8V9.8H21.7698H22.8571C23.2122 9.8 23.5 10.0686 23.5 10.4C23.5 10.7314 23.2122 11 22.8571 11H20.7698C20.5118 11 20.271 10.9263 20.0701 10.8Z" fill="#22E1FF"/>
</svg>

<svg width="32" height="16" fill="none" xmlns="http://www.w3.org/2000/svg"><path fill-rule="evenodd" clip-rule="evenodd" d="M2.5 0a2 2 0 0 0-2 2v12a2 2 0 0 0 2 2h27a2 2 0 0 0 2-2V2a2 2 0 0 0-2-2h-27Zm1.27 6.2h3.095c.35 0 .635-.27.635-.6 0-.33-.286-.6-.635-.6H3.77C3.07 5 2.5 5.54 2.5 6.2v3.6c0 .66.571 1.2 1.27 1.2h3.087c.355 0 .643-.269.643-.6 0-.331-.288-.6-.643-.6H3.77V6.2Zm4.73 0c0-.663.618-1.2 1.38-1.2h2.069c.762 0 1.38.537 1.38 1.2v4.2c0 .331-.31.6-.69.6-.381 0-.69-.269-.69-.6V8.6h-2.07v1.8c0 .331-.308.6-.69.6-.38 0-.689-.269-.689-.6V6.2Zm3.449 0v1.2h-2.07V6.2h2.07ZM29.5 9.8V8.6c0-.66-.563-1.2-1.25-1.2h-2.5V6.2h3.125c.344 0 .625-.27.625-.6 0-.33-.281-.6-.625-.6H25.75c-1.25 0-1.25.87-1.25 1.2v1.2c0 .6.375 1.2 1.25 1.2h2.5v1.2h-3.125a.615.615 0 0 0-.625.6c0 .33.281.6.625.6h3.125c.688 0 1.25-.54 1.25-1.2Zm-14.73.737c.084.102.186.191.3.263.201.126.442.2.7.2h2.087c.355 0 .643-.269.643-.6 0-.331-.288-.6-.643-.6H15.77V5.635a.635.635 0 1 0-1.27 0V9.8c0 .277.1.534.27.737Zm5.3.263a1.263 1.263 0 0 1-.3-.263 1.152 1.152 0 0 1-.27-.737V5.635a.635.635 0 0 1 1.27 0V9.8H22.857c.355 0 .643.269.643.6 0 .331-.288.6-.643.6H20.77c-.258 0-.499-.074-.7-.2Z" fill="#22E1FF"/></svg>
